X:1
T:Title
%%score { ( 1 2 3 ) | ( 4 5 6 ) }
L:1/8
Q:1/4=100
M:4/4
K:A
V:1 bass nm="Grand Piano"
V:2 bass 
V:3 bass 
V:4 bass 
V:5 bass 
V:6 bass 
V:1
 z4 A2 z2 | z4[K:treble] B2 z2 | z8 | z8 | D2- [D-F]2 [D-F]2 [D-E]2 | [D-G]2 [D-A]2 [D-B]2 [DG]2 | %6
 [Cc]2 [Fc]2 [GB]2 G2 | G2 F2 E4 | [Ec]2 [Ec]2 [Fd]2 [Ec]2 | [DB]2 [DF]2 G2 F2 | E2 F2 G2 A2 | %11
 B2 c2 [Ge]2 [EGd]2 | [EAc]2 [E=Gc]2 [DFc]2 [DFd]2 | [EB]2 [Dc]2 [CA]4 |] %14
V:2
 E2 z2 D4- | [D-E]2 D2[K:treble] C4- | [C-E]2 [Cc]2 c2 B2 | B2 z2 [G,=DB]4 | [E,-G,E]2 E,6 | x8 | %6
 x8 | x8 | x8 | x8 | x8 | x8 | x8 | x8 |] %14
V:3
 [E,-C]4 E,4- | E,8[K:treble] | z4 ^D4- | D4 z4 | x8 | x8 | x8 | x8 | x8 | x8 | x8 | x8 | x8 | %13
 x8 |] %14
V:4
 z2 A2 z2 G2 | z2[K:treble] B2[K:bass] z2 A2 | z8 | A,4 z4 | z2 A,2 A,2 G,2 | z2 F,2 G,2 E,2 | z8 | %7
 ^D8 | [A,,A,]2 [A,,A,]2 [A,,A,]2 [A,,A,]2 | [D,F,]2 [B,,B,]2 [E,B,D]2 [E,A,D]2 | %10
 [E,G,D]2 [E,A,D]2 [E,B,D]2 [E,A,C]2 | [E,G,E]2 [E,A,E]2 [E,B,]2 E,2 | A,2 A,2 D,2 B,,2 | %13
 [E,G,]2 [E,G,]2 [A,,A,]4 |] %14
V:5
 A,,4 B,,4 | G,,4[K:treble][K:bass] A,,4 | z2 E2 F,4 | z2 F2 E,,4 | x8 | E,6 z2 | %6
 [A,,A,]2 [^A,,^A,]2 B,2- [B,-E]2 | B,2 A,2 [E,G,]4 | x8 | x8 | x8 | x8 | x8 | x8 |] %14
V:6
 x8 | x2[K:treble] x2[K:bass] x4 | [A,,A,]4 B,,4- | B,,4 z4 | E,,8- | E,,8 | z4 B,,4- | B,,4 z4 | %8
 x8 | x8 | x8 | x8 | x8 | x8 |] %14

